vue/public/icons/search.svg

<svg xmlns="http://www.w3.org/2000/svg" width="25" height="25" viewBox="0 0 25 25" id="search">
  <g clip-path="url(#clip0_993_4930)">
    <path d="M10.4167 0C4.67604 0 0 4.67604 0 10.4167C0 16.1573 4.67604 20.8333 10.4167 20.8333C12.913 20.8333 15.2056 19.9469 17.0024 18.4753L23.2218 24.6948C23.3178 24.7948 23.4328 24.8746 23.56 24.9296C23.6872 24.9846 23.8241 25.0136 23.9627 25.015C24.1013 25.0165 24.2388 24.9902 24.3671 24.9378C24.4954 24.8854 24.612 24.808 24.71 24.71C24.808 24.612 24.8854 24.4954 24.9378 24.3671C24.9902 24.2388 25.0165 24.1013 25.015 23.9627C25.0136 23.8241 24.9846 23.6872 24.9296 23.56C24.8746 23.4328 24.7948 23.3178 24.6948 23.2218L18.4753 17.0024C19.9469 15.2056 20.8333 12.913 20.8333 10.4167C20.8333 4.67604 16.1573 0 10.4167 0ZM10.4167 2.08333C15.0314 2.08333 18.75 5.80196 18.75 10.4167C18.75 15.0314 15.0314 18.75 10.4167 18.75C5.80196 18.75 2.08333 15.0314 2.08333 10.4167C2.08333 5.80196 5.80196 2.08333 10.4167 2.08333Z" />
  </g>
  <defs>
    <clipPath id="clip0_993_4930">
      <rect width="25" height="25" />
    </clipPath>
  </defs>
</svg>

<svg version="1.1" id="search" xmlns="http://www.w3.org/2000/svg" xmlns:xlink="http://www.w3.org/1999/xlink" x="0px" y="0px"
	 viewBox="0 0 25 25" style="enable-background:new 0 0 25 25;" xml:space="preserve">
<style type="text/css">
	.st0{clip-path:url(#SVGID_00000005245765027706761500000014152071446753149324_);}
</style>
<g>
	<defs>
		<rect id="SVGID_1_" y="0" width="25" height="25"/>
	</defs>
	<clipPath id="SVGID_00000026136002316485085260000015910446519490584460_">
		<use xlink:href="#SVGID_1_"  style="overflow:visible;"/>
	</clipPath>
	<g style="clip-path:url(#SVGID_00000026136002316485085260000015910446519490584460_);">
		<path d="M10.4,0C4.7,0,0,4.7,0,10.4c0,5.7,4.7,10.4,10.4,10.4c2.5,0,4.8-0.9,6.6-2.4l6.2,6.2c0.1,0.1,0.2,0.2,0.3,0.2
			C23.7,25,23.8,25,24,25c0.1,0,0.3,0,0.4-0.1c0.1-0.1,0.2-0.1,0.3-0.2c0.1-0.1,0.2-0.2,0.2-0.3C25,24.2,25,24.1,25,24
			c0-0.1,0-0.3-0.1-0.4c-0.1-0.1-0.1-0.2-0.2-0.3L18.5,17c1.5-1.8,2.4-4.1,2.4-6.6C20.8,4.7,16.2,0,10.4,0z M10.4,2.1
			c4.6,0,8.3,3.7,8.3,8.3c0,4.6-3.7,8.3-8.3,8.3c-4.6,0-8.3-3.7-8.3-8.3C2.1,5.8,5.8,2.1,10.4,2.1z"/>
	</g>
</g>
</svg>
